!!!OTL: ICH  WILL MIR MAL  DIE WELT BESEHN
!!!ARE: Europa, Mitteleuropa, Deutschland
!!!SCT: F0370
!!!YEM: Copyright 1995, estate of Helmut Schaffrath.
**kern
*ICvox
*Ivox
*M4/4
*k[f#c#]
*D:
{8F#
8G
=1
4A
4F#
4D
8d
8c#
=2
4.B
8A
4G}
{8G
8F#
=3
4E
4C#
4.A
8G
=4
2G
4F#}
{8F#
8G
=5
4A
4F#
4D
8d
8c#
=6
4.B
8A
4G#}
{4B
=7
4.e
8d
4cn
4B
=8
2B
4A}
{4A
=9
8B
8A
8B
8c#
4d
4A
=10
4e
4A
4f#}
{4d
=11
4c#
4B
4.g
8e
=12
8d
8c#
8B
8c#
4d}
{4A
=13
8B
8A
8B
8c#
4d
4A
=14
4e
4A
4f#}
{4d
=15
4c#
4B
4.g
8e
=16
4d
4c#
4d}
==
!!!AGN: Jugend - Lied, Wander - Lied
!!!ONB: ESAC (Essen Associative Code) Database: FINK
!!!AMT: simple quadruple
!!!AIN: vox
!!!EED: Helmut Schaffrath
!!!EEV: 1.0
*-
